X:71
T:Caoilte's Hornpipe
N: pronounced 'queel-che'
R:hornpipe
C:Paul S. Cranford
O:Cape Breton Island
S:http://www.cranfordpub.com
D:currently unrecorded
B:currently unpublished in book form
Z:psc, (re-formatted,updated 9/17/04)
N:
H:                                                        copyrights Cranford Publications, SOCAN
L:1/8
Q:288
M:C
K:Edor
EF|GB,GF EDB,E|DGBd B2 AG|FDGA FEDA|(3(Bcd) AF GFED''|
EB, (3EFG FAGB|AdFE DEFA|GEFd BGAf|e2 E2 E2:|
|:ef|gBgf edBA|GBAF  E2 FE|DA,FA FDdB|ADFE  DFGF|
EB,EG FDFA|GABd B2 GA|GEFd BGAf|e2 E2 E2:|
